svgs/light/vials.svg

<svg xmlns="http://www.w3.org/2000/svg" viewBox="0 0 512 512"><!--! Font Awesome Pro 6.6.0 by @fontawesome - https://fontawesome.com License - https://fontawesome.com/license (Commercial License) Copyright 2024 Fonticons, Inc. --><path d="M16 32C7.2 32 0 39.2 0 48s7.2 16 16 16l16 0 0 208 0 128c0 44.2 35.8 80 80 80s80-35.8 80-80l0-128 0-208 16 0c8.8 0 16-7.2 16-16s-7.2-16-16-16l-32 0L48 32 16 32zM64 256L64 64l96 0 0 192-96 0zm0 32l96 0 0 112c0 26.5-21.5 48-48 48s-48-21.5-48-48l0-112zM304 32c-8.8 0-16 7.2-16 16s7.2 16 16 16l16 0 0 208 0 128c0 44.2 35.8 80 80 80s80-35.8 80-80l0-128 0-208 16 0c8.8 0 16-7.2 16-16s-7.2-16-16-16l-32 0L336 32l-32 0zm48 224l0-192 96 0 0 192-96 0zm0 32l96 0 0 112c0 26.5-21.5 48-48 48s-48-21.5-48-48l0-112z"/></svg>

<svg xmlns="http://www.w3.org/2000/svg" viewBox="0 0 512 512"><!--! Font Awesome Pro 6.5.2 by @fontawesome - https://fontawesome.com License - https://fontawesome.com/license (Commercial License) Copyright 2024 Fonticons, Inc. --><path d="M16 32C7.2 32 0 39.2 0 48s7.2 16 16 16H32V272 400c0 44.2 35.8 80 80 80s80-35.8 80-80V272 64h16c8.8 0 16-7.2 16-16s-7.2-16-16-16H176 48 16zM64 256V64h96V256H64zm0 32h96V400c0 26.5-21.5 48-48 48s-48-21.5-48-48V288zM304 32c-8.8 0-16 7.2-16 16s7.2 16 16 16h16V272 400c0 44.2 35.8 80 80 80s80-35.8 80-80V272 64h16c8.8 0 16-7.2 16-16s-7.2-16-16-16H464 336 304zm48 224V64h96V256H352zm0 32h96V400c0 26.5-21.5 48-48 48s-48-21.5-48-48V288z"/></svg>
